X: 11961
T: Enchanted Woods, The
R: jig
M: 6/8
K: Eminor
B,|:~E3 GAB|AFD D2d|dBd cBG|ABA AGF|
~E3 GAB|AFD D2d|dBd cBG|1 AFD E2B,:|2 AFD EBc||
K: Gmaj
|:dBB Bgf|fee e2d|efg dBG|BAA ABc|
dBB Bgf|fee a2e|faf gfe|1 dAF GBc:|2 dAF G2B,||

